X: 1
T: Mulqueen's
M: 4/4
L: 1/8
D: The Magic Square
K: D maj
DE | FE (3EEE FDDE- | EFFA dABA | FE (3EEE FDDE | FAef dBAG |
| FE (3EEE FDDE- | EFFA dABA | FE (3EEE FDDE | FAef dBAd ||
|Be (3eee e2 ed | (3Bcd ef gfed | (3Bcd ef {f}g2 gd | B3 c dBAd |  Beed 
|efed | (3Bcd ef {f}g2 fg | afge dfec | Bgec dBAG||
